src/lib/packages/icons/src/assets/line/steak.svg

<svg width="24" height="24" viewBox="0 0 24 24" fill="none" xmlns="http://www.w3.org/2000/svg">
<path d="M14 2.25C9.58 2.25 6.25 5.58 6.25 10C6.25 11.8 5.33998 12.59 4.28998 13.5C3.32998 14.33 2.25 15.27 2.25 17C2.25 20.76 6.01 21.75 8 21.75C18.15 21.75 21.75 15.69 21.75 10.5C21.75 5.31 18.71 2.25 14 2.25ZM8 20.25C7.83 20.25 3.75 20.21 3.75 17C3.75 16 4.30003 15.47 5.28003 14.63C6.38003 13.68 7.75 12.49 7.75 10C7.75 6.44 10.44 3.75 14 3.75C17.02 3.75 20.25 5.52 20.25 10.5C20.25 12.13 19.66 20.25 8 20.25ZM14 5.25C11.25 5.25 9.25 7.25 9.25 10C9.25 12.75 8.30998 13.61 7.22998 14.51L6.81 14.87C6.47 15.16 5.42002 16.04 5.77002 17.36C6.07002 18.49 7.17998 18.89 8.03998 18.89C18.45 18.89 18.75 11.36 18.75 10.5C18.75 7.16 17.02 5.25 14 5.25ZM8.03998 17.39C8.03998 17.39 7.32997 17.39 7.21997 16.98C7.12997 16.64 7.37002 16.36 7.77002 16.02C7.77002 16.02 7.83998 15.96 7.84998 15.96L8.19 15.67C9.39 14.67 10.75 13.54 10.75 10.01C10.75 8.07001 12.06 6.76001 14 6.76001C16.19 6.76001 17.25 7.99001 17.25 10.51C17.25 11.66 16.81 17.4 8.03998 17.4V17.39ZM15.27 10C15.27 10.69 14.71 11.25 14.02 11.25C13.33 11.25 12.77 10.69 12.77 10C12.77 9.31 13.32 8.75 14.02 8.75C14.71 8.75 15.27 9.31 15.27 10Z" fill="currentColor"/>
</svg>

<svg xmlns="http://www.w3.org/2000/svg" width="24" height="24" fill="none"><path fill="currentColor" d="M14 2.25c-4.42 0-7.75 3.33-7.75 7.75 0 1.8-.91 2.59-1.96 3.5-.96.83-2.04 1.77-2.04 3.5 0 3.76 3.76 4.75 5.75 4.75 10.15 0 13.75-6.06 13.75-11.25S18.71 2.25 14 2.25Zm-6 18c-.17 0-4.25-.04-4.25-3.25 0-1 .55-1.53 1.53-2.37 1.1-.95 2.47-2.14 2.47-4.63 0-3.56 2.69-6.25 6.25-6.25 3.02 0 6.25 1.77 6.25 6.75 0 1.63-.59 9.75-12.25 9.75Zm6-15c-2.75 0-4.75 2-4.75 4.75s-.94 3.61-2.02 4.51l-.42.36c-.34.29-1.39 1.17-1.04 2.49.3 1.13 1.41 1.53 2.27 1.53 10.41 0 10.71-7.53 10.71-8.39 0-3.34-1.73-5.25-4.75-5.25ZM8.04 17.39s-.71 0-.82-.41c-.09-.34.15-.62.55-.96 0 0 .07-.06.08-.06l.34-.29c1.2-1 2.56-2.13 2.56-5.66 0-1.94 1.31-3.25 3.25-3.25 2.19 0 3.25 1.23 3.25 3.75 0 1.15-.44 6.89-9.21 6.89v-.01ZM15.27 10a1.25 1.25 0 1 1-2.5 0 1.25 1.25 0 0 1 2.5 0Z"/></svg>
